images/icons/decor2.svg

<?xml version="1.0" encoding="UTF-8"?>
<svg width="672px" height="602px" viewBox="0 0 672 602" version="1.1" xmlns="http://www.w3.org/2000/svg" xmlns:xlink="http://www.w3.org/1999/xlink">
    <title>blob-shape copy</title>
    <defs>
        <rect id="path-1" x="0" y="0.939058172" width="672" height="600"></rect>
        <linearGradient x1="55.6286813%" y1="4.21793457%" x2="43.1327731%" y2="100%" id="linearGradient-3">
            <stop stop-color="#2FBEFF" offset="0%"></stop>
            <stop stop-color="#1B70B6" offset="100%"></stop>
        </linearGradient>
    </defs>
    <g id="Design" stroke="none" stroke-width="1" fill="none" fill-rule="evenodd">
        <g id="blob-shape-copy" transform="translate(0.000000, 0.060942)">
            <mask id="mask-2" fill="white">
                <use xlink:href="#path-1"></use>
            </mask>
            <g id="Mask"></g>
            <g mask="url(#mask-2)" fill="url(#linearGradient-3)" fill-rule="nonzero" id="Path_22">
                <g transform="translate(349.000000, 308.000000) rotate(-105.000000) translate(-349.000000, -308.000000) translate(-55.000000, -96.000000)">
                    <path d="M569.309343,109.293653 C598.683937,146.851785 610.657745,192.42117 607.212045,231.874437 C603.766345,271.413847 584.987279,304.837138 565.002218,335.84844 C544.931014,366.773599 411.170093,522.331858 405.513239,542.130848 C399.856385,561.929838 511.032216,904.733539 273.018754,710.936163 C67.0339357,543.215845 360.586055,369.099447 339.567284,331.282887 C318.634655,293.380185 284.436081,263.919449 272.892986,222.743332 C261.436032,181.481072 272.634558,128.589574 305.282567,91.5482975 C337.930576,54.5070206 392.028069,33.402107 442.507577,37.7092322 C492.987084,42.0163574 539.848607,71.6493789 569.309343,109.293653 Z" transform="translate(403.565295, 403.618954) rotate(45.000000) translate(-403.565295, -403.618954) "></path>
                </g>
            </g>
        </g>
    </g>
</svg>

<svg width="672" height="602" xmlns="http://www.w3.org/2000/svg" xmlns:xlink="http://www.w3.org/1999/xlink"><defs><linearGradient x1="55.629%" y1="4.218%" x2="43.133%" y2="100%" id="linearGradient-3"><stop stop-color="#2FBEFF" offset="0%"/><stop stop-color="#1B70B6" offset="100%"/></linearGradient><path id="path-1" d="M0 .939h672v600H0z"/></defs><g id="Design" stroke="none" stroke-width="1" fill="none" fill-rule="evenodd"><g id="blob-shape-copy" transform="translate(0 .06)"><mask id="mask-2" fill="#fff"><use xlink:href="#path-1"/></mask><g mask="url(#mask-2)" fill="url(#linearGradient-3)" fill-rule="nonzero" id="Path_22"><path d="M569.31 109.294c29.374 37.558 41.348 83.127 37.902 122.58-3.446 39.54-22.225 72.963-42.21 103.974-20.071 30.926-153.832 186.484-159.489 206.283-5.657 19.799 105.52 362.603-132.494 168.805-205.985-167.72 87.567-341.837 66.548-379.653-20.932-37.903-55.13-67.364-66.674-108.54-11.457-41.262-.258-94.153 32.39-131.195 32.648-37.041 86.745-58.146 137.225-53.839 50.48 4.307 97.34 33.94 126.801 71.585z" transform="rotate(-60 293.795 403.545)"/></g></g></g></svg>
